packages/core/src/svgs/lmwr.svg

<svg width="24" height="24" viewBox="0 0 24 24" fill="none" xmlns="http://www.w3.org/2000/svg">
<g clip-path="url(#clip0_31_13299)">
<path d="M0 0H24V24H0V0Z" fill="#F0F3FA"/>
<path d="M6.34735 9.26551L6.39021 9.28265L6.7845 9.45836L7.21735 9.65122C7.71633 8.59064 8.56963 7.73734 9.63021 7.23836L9.43735 6.80551L9.16307 6.16694C8.85021 5.54551 8.28878 5.75551 8.09164 5.85836C7.20021 6.41122 6.46307 7.13979 5.91021 7.98408L5.90592 8.01836C5.55021 8.84122 6.17164 9.18408 6.34735 9.26551Z" fill="#00934B"/>
<path d="M7.22559 9.64284L7.92844 9.95569L8.5413 10.2214L9.02559 10.44C9.32788 9.82887 9.82355 9.3347 10.4356 9.03427L10.217 8.54569L9.94701 7.93712L9.63844 7.22998C8.57953 7.73132 7.72693 8.58392 7.22559 9.64284Z" fill="#22D511"/>
<path d="M9.01709 10.4402L10.0328 10.8859L10.9714 11.2973C11.0541 11.289 11.1309 11.251 11.1877 11.1903C11.2445 11.1296 11.2772 11.0504 11.2799 10.9673L10.8685 10.0373L10.4271 9.02588C9.81613 9.3319 9.32125 9.82828 9.01709 10.4402Z" fill="#BEF000"/>
<path d="M19.1185 10.5001C18.7928 9.68585 18.1242 9.87014 17.9399 9.943L17.8885 9.96443L17.4771 10.123L17.0356 10.2944C17.4428 11.4387 17.4214 12.643 17.0356 13.7187L17.4771 13.8901L18.0471 14.1087C18.7071 14.3873 18.9856 13.9159 19.0842 13.6673C19.3371 12.643 19.3542 11.5673 19.1185 10.4959V10.5001Z" fill="#00934B"/>
<path d="M17.0442 10.2983L16.3285 10.5726L15.7028 10.8169L15.21 11.0098C15.4328 11.6783 15.4242 12.3769 15.21 13.0026L15.6942 13.1955L16.3242 13.4398L17.0357 13.7183C17.4257 12.6469 17.4514 11.4469 17.0442 10.2983Z" fill="#22D511"/>
<path d="M15.2144 11.0141L14.1858 11.4126L13.2301 11.7898C13.1887 11.8372 13.1614 11.8953 13.1516 11.9575C13.1417 12.0196 13.1496 12.0833 13.1744 12.1412C13.1915 12.1755 13.2087 12.2098 13.2301 12.2355L14.1858 12.6041L15.2144 13.0026C15.4316 12.3561 15.4316 11.6563 15.2144 11.0098V11.0141Z" fill="#BEF000"/>
<path d="M6.51451 13.8941L6.96022 13.7184C6.54879 12.5784 6.57451 11.3698 6.96022 10.2984L6.51451 10.1226L5.93594 9.89551C5.26737 9.62551 5.00165 10.1226 4.90736 10.3669C4.66151 11.3897 4.64979 12.4547 4.87308 13.4826V13.4912C5.19879 14.3269 5.88022 14.1341 6.06451 14.0698L6.51451 13.8941Z" fill="#00934B"/>
<path d="M6.96014 13.7143L7.67157 13.44L8.293 13.1957L8.78585 13.0028C8.56414 12.3571 8.56414 11.6558 8.78585 11.01L8.293 10.8171L7.67157 10.5814L6.96014 10.3071C6.57442 11.3786 6.54871 12.5786 6.96014 13.7186V13.7143Z" fill="#22D511"/>
<path d="M8.79419 13.0026L9.82276 12.6041L10.7699 12.2355C10.826 12.1726 10.8563 12.0909 10.8547 12.0067C10.8531 11.9224 10.8197 11.8419 10.7613 11.7812L9.81847 11.4126L8.78562 11.0098C8.57117 11.6572 8.57418 12.357 8.79419 13.0026Z" fill="#BEF000"/>
<path d="M7.23419 14.3701L6.80133 14.563L6.34705 14.7644C6.34705 14.7644 5.55419 15.193 5.91848 16.0115V16.0201C6.49705 16.9201 7.25991 17.6487 8.12991 18.1844C8.35705 18.2915 8.92705 18.4758 9.21419 17.7815L9.45419 17.2244L9.64705 16.7958C8.58868 16.2875 7.73691 15.4312 7.23419 14.3701Z" fill="#00934B"/>
<path d="M10.2344 15.4715L10.4444 14.9915C9.83166 14.69 9.33591 14.1943 9.03438 13.5815L8.55009 13.7958L7.93723 14.0615L7.23438 14.3701C7.73669 15.4313 8.59285 16.2844 9.6558 16.783L9.96438 16.0801L10.2344 15.4673V15.4715Z" fill="#22D511"/>
<path d="M10.4445 14.9831L10.8859 13.9674L11.2973 13.0374C11.292 12.9535 11.2558 12.8746 11.1956 12.816C11.1354 12.7574 11.0556 12.7232 10.9716 12.7202L10.0416 13.1316L9.02588 13.5731C9.32957 14.1857 9.82661 14.6812 10.4402 14.9831H10.4445Z" fill="#BEF000"/>
<path d="M16.7745 9.65145L17.2116 9.4586L17.6959 9.24431L17.653 9.25288C17.8287 9.16717 18.4416 8.83288 18.0987 8.02717C17.5204 7.12325 16.7399 6.36617 15.8187 5.81574C15.1845 5.49003 14.7902 6.23574 14.7902 6.23574L14.5459 6.79288L14.353 7.23003C15.4183 7.72952 16.275 8.58623 16.7745 9.65145Z" fill="#00934B"/>
<path d="M13.7741 8.53712L13.5684 9.02569C14.1818 9.32967 14.6787 9.8265 14.9826 10.44L15.4669 10.23L16.0798 9.96427L16.7741 9.65141C16.2722 8.58786 15.4162 7.73186 14.3526 7.22998L14.0441 7.93712L13.7741 8.53712Z" fill="#22D511"/>
<path d="M13.5686 9.02588L13.1229 10.0373L12.7114 10.9845C12.72 11.113 12.7971 11.2202 12.9257 11.2716C12.9557 11.2887 12.9986 11.2973 13.0414 11.2973L13.9757 10.8859L14.9914 10.4402C14.6792 9.82972 14.1809 9.33441 13.5686 9.02588Z" fill="#BEF000"/>
<path d="M13.8856 17.4859L13.7099 17.0444C12.5613 17.4559 11.3656 17.4301 10.2942 17.0444L10.1185 17.4859L9.83131 18.223C9.83131 18.223 9.68988 18.8016 10.5256 19.123C11.5213 19.3407 12.5526 19.3378 13.547 19.1144C13.6927 19.0716 14.387 18.853 14.1385 18.1244L13.8856 17.4859Z" fill="#00934B"/>
<path d="M13.7142 17.0445L13.4399 16.333L13.1999 15.703L13.007 15.2188C12.3342 15.4416 11.6399 15.433 11.0142 15.2188L10.8213 15.703L10.577 16.333L10.3027 17.0445C11.3742 17.4302 12.5742 17.4559 13.7184 17.0445H13.7142Z" fill="#22D511"/>
<path d="M12.9987 15.2145L12.5959 14.1859L12.2273 13.2431C12.1792 13.1999 12.12 13.1711 12.0564 13.1597C11.9928 13.1483 11.9273 13.155 11.8673 13.1788C11.833 13.196 11.7987 13.2131 11.7773 13.2388L11.4087 14.1859L11.0059 15.2145C11.6401 15.4288 12.3301 15.4417 12.9987 15.2145Z" fill="#BEF000"/>
<path d="M10.1101 6.51846L10.2816 6.96417C11.4301 6.55275 12.6301 6.57846 13.7016 6.9556L13.8773 6.50989L14.053 6.05989C14.1216 5.8756 14.3101 5.1856 13.4744 4.86846L13.4573 4.85989C12.4419 4.65232 11.3936 4.66694 10.3844 4.90275C10.1487 4.9756 9.59586 5.2456 9.89158 5.95703L10.1059 6.51846H10.1101Z" fill="#00934B"/>
<path d="M10.2856 6.96405L10.5599 7.67547L10.8042 8.2969L10.9971 8.78976C11.6428 8.56772 12.3442 8.56772 12.9899 8.78976L13.1828 8.2969L13.4228 7.67547L13.7014 6.96405C12.6299 6.57833 11.4299 6.55262 10.2856 6.96405Z" fill="#22D511"/>
<path d="M10.9971 8.78995L11.3999 9.81852L11.7771 10.7828C11.8405 10.8333 11.92 10.8593 12.001 10.8561C12.082 10.853 12.1592 10.8209 12.2185 10.7657L12.5871 9.80995L12.9899 8.78138C12.3419 8.57063 11.6433 8.57364 10.9971 8.78995Z" fill="#BEF000"/>
<path d="M17.6573 14.747L17.6059 14.7299L17.2116 14.5585L16.7745 14.3613C16.2726 15.4249 15.4166 16.2809 14.353 16.7828L14.5459 17.2199L14.7902 17.7728C15.1073 18.5442 15.763 18.2442 15.9302 18.1413C16.7873 17.6013 17.5202 16.8813 18.073 16.0285L18.0902 15.9942C18.4502 15.1756 17.833 14.8328 17.653 14.747H17.6573Z" fill="#00934B"/>
<path d="M16.7741 14.3613L16.0712 14.0528L15.4498 13.7828L14.9741 13.5728C14.6732 14.1823 14.1789 14.6751 13.5684 14.9742L13.7741 15.4499L14.0441 16.0713L14.3526 16.7742C15.4173 16.278 16.2742 15.4242 16.7741 14.3613Z" fill="#22D511"/>
<path d="M14.9745 13.5859L13.9631 13.1402L13.0416 12.7373C13.003 12.7374 12.965 12.7462 12.9302 12.763C12.8886 12.7796 12.8508 12.8045 12.8191 12.8362C12.7874 12.8679 12.7625 12.9057 12.7459 12.9473C12.7289 12.9804 12.72 13.0172 12.7202 13.0544L13.1231 13.9759L13.5688 14.9916C14.1782 14.687 14.6717 14.1919 14.9745 13.5816V13.5859Z" fill="#BEF000"/>
</g>
<defs>
<clipPath id="clip0_31_13299">
<rect width="24" height="24" fill="white"/>
</clipPath>
</defs>
</svg>

<svg xmlns="http://www.w3.org/2000/svg" width="24" height="24" fill="none" viewBox="0 0 24 24"><g clip-path="url(#a)"><path fill="#F0F3FA" d="M0 0h24v24H0z"/><path fill="#00934B" d="m6.347 9.266.043.017.395.175.432.193A5.04 5.04 0 0 1 9.63 7.238l-.193-.432-.274-.64c-.313-.62-.874-.41-1.071-.308A7 7 0 0 0 5.91 7.984l-.004.034c-.356.823.266 1.166.441 1.248"/><path fill="#22D511" d="m7.226 9.643.702.313.613.265.485.219a3.1 3.1 0 0 1 1.41-1.406l-.219-.488-.27-.609-.309-.707a5.07 5.07 0 0 0-2.412 2.413"/><path fill="#BEF000" d="m9.017 10.44 1.016.446.938.411a.343.343 0 0 0 .309-.33l-.412-.93-.44-1.011a3.15 3.15 0 0 0-1.41 1.414"/><path fill="#00934B" d="M19.119 10.5c-.326-.814-.995-.63-1.18-.557l-.05.021-.412.159-.441.171a5.08 5.08 0 0 1 0 3.425l.441.171.57.219c.66.278.939-.193 1.037-.442.253-1.024.27-2.1.035-3.171z"/><path fill="#22D511" d="m17.044 10.298-.716.275-.625.244-.493.193a3.1 3.1 0 0 1 0 1.993l.484.192.63.245.712.278a5.04 5.04 0 0 0 .008-3.42"/><path fill="#BEF000" d="m15.214 11.014-1.028.399-.956.377a.33.33 0 0 0-.056.351.5.5 0 0 0 .056.095l.956.368 1.028.399a3.13 3.13 0 0 0 0-1.993z"/><path fill="#00934B" d="m6.515 13.894.445-.176a5.04 5.04 0 0 1 0-3.42l-.445-.175-.58-.227c-.668-.27-.933.227-1.028.47a7 7 0 0 0-.034 3.117v.008c.326.836 1.007.643 1.192.579z"/><path fill="#22D511" d="m6.96 13.714.712-.274.621-.244.493-.193a3.07 3.07 0 0 1 0-1.993l-.493-.193-.621-.236-.712-.274a5 5 0 0 0 0 3.412z"/><path fill="#BEF000" d="m8.794 13.003 1.029-.399.947-.368a.334.334 0 0 0-.009-.455l-.943-.368-1.032-.403a3.13 3.13 0 0 0 .008 1.993"/><path fill="#00934B" d="m7.234 14.37-.433.193-.454.201s-.793.429-.429 1.248v.008a7 7 0 0 0 2.212 2.164c.227.107.797.292 1.084-.402l.24-.558.193-.428a5.13 5.13 0 0 1-2.413-2.426"/><path fill="#22D511" d="m10.234 15.472.21-.48a3.1 3.1 0 0 1-1.41-1.41l-.484.214-.613.266-.703.308a5.05 5.05 0 0 0 2.422 2.413l.308-.703.27-.613z"/><path fill="#BEF000" d="m10.445 14.983.44-1.016.412-.93a.34.34 0 0 0-.325-.317l-.93.412-1.016.441c.304.613.8 1.108 1.414 1.41z"/><path fill="#00934B" d="m16.775 9.651.437-.192.484-.215-.043.009c.176-.086.789-.42.446-1.226a6.9 6.9 0 0 0-2.28-2.211c-.635-.326-1.029.42-1.029.42l-.244.557-.193.437a5.04 5.04 0 0 1 2.422 2.421"/><path fill="#22D511" d="m13.774 8.537-.206.489c.614.304 1.11.8 1.415 1.414l.484-.21.613-.266.694-.313a5.07 5.07 0 0 0-2.421-2.421l-.309.707z"/><path fill="#BEF000" d="m13.569 9.026-.446 1.011-.412.947a.33.33 0 0 0 .215.288c.03.017.073.025.115.025l.935-.411 1.015-.446a3.23 3.23 0 0 0-1.422-1.414"/><path fill="#00934B" d="m13.886 17.486-.176-.442a5.03 5.03 0 0 1-3.416 0l-.176.442-.287.737s-.141.579.695.9a7 7 0 0 0 3.021-.009c.146-.042.84-.261.591-.99z"/><path fill="#22D511" d="m13.714 17.045-.274-.712-.24-.63-.193-.484a3.1 3.1 0 0 1-1.993 0l-.193.484-.244.63-.274.712a5.03 5.03 0 0 0 3.415 0z"/><path fill="#BEF000" d="m12.999 15.215-.403-1.03-.369-.942a.35.35 0 0 0-.36-.064c-.034.017-.068.034-.09.06l-.368.947-.403 1.028a3.08 3.08 0 0 0 1.993 0"/><path fill="#00934B" d="m10.11 6.518.172.446a5.1 5.1 0 0 1 3.42-.008l.175-.446.176-.45c.069-.184.257-.874-.579-1.192l-.017-.008a7.2 7.2 0 0 0-3.073.043c-.235.073-.788.343-.492 1.054l.214.561z"/><path fill="#22D511" d="m10.286 6.964.274.711.244.622.193.493a3.06 3.06 0 0 1 1.993 0l.193-.493.24-.622.278-.71a5.03 5.03 0 0 0-3.415 0"/><path fill="#BEF000" d="m10.997 8.79.403 1.029.377.964a.34.34 0 0 0 .442-.017l.368-.956.403-1.029a3.18 3.18 0 0 0-1.993.009"/><path fill="#00934B" d="m17.657 14.747-.051-.017-.394-.171-.437-.198a5.07 5.07 0 0 1-2.422 2.422l.193.437.244.553c.317.771.973.471 1.14.368a7 7 0 0 0 2.143-2.112l.017-.035c.36-.818-.257-1.161-.437-1.247z"/><path fill="#22D511" d="m16.774 14.361-.703-.308-.621-.27-.476-.21c-.3.61-.795 1.102-1.406 1.401l.206.476.27.621.309.703a5.02 5.02 0 0 0 2.421-2.413"/><path fill="#BEF000" d="m14.975 13.586-1.012-.446-.921-.403a.3.3 0 0 0-.112.026.33.33 0 0 0-.184.184.23.23 0 0 0-.026.107l.403.922.446 1.016c.61-.305 1.103-.8 1.406-1.41z"/></g><defs><clipPath id="a"><path fill="#fff" d="M0 0h24v24H0z"/></clipPath></defs></svg>
